X:1
T:Ich ruf zu dir, Herr Jesu Christ
T:Johann Agricola (Schneider)
T:Source : Text first appears in a 1526 pamphlet in Nürnberg, later republished in1529 ( Geistliche Lieder ). Editor : André Vierendeels (09/05/14).
T:(1492-1566)
T:Ich ruf' zu Dir
C:Johann Agricola (Schneider)
%%score [ 1 2 3 4 ]
L:1/8
Q:1/4=120
M:4/4
K:F
V:1 treble nm="Soprano" snm="S"
V:2 treble nm="Alto" snm="A"
V:3 treble-8 nm="Tenor" snm="T"
V:4 bass nm="Bass" snm="B"
V:1
 z4 z2 D2 | F2 G2 F2 D2 | F2 G2 !fermata!A2 A2 | c2 A2 F2 G2 | B4 !fermata!A2 A2 | F2 G2 F2 D2 | %6
w: Ich|ruf' zu dir, Herr|Je- su Christ, ich|bitt, er- hör mein|Kla- gen; Ver-|leih mir Gnad zu|
w: Ich|bitt noch mehr, O|Her- re Gott, du|kannst es mir wohl|ge- ben, dasz|ich ninht wie- der|
 F2 G2 !fermata!A2 A2 | c2 A2 F2 G2 | B4 !fermata!A2 c2 | d2 c2 A2 F2 | A2 G2 !fermata!F2 A2 | %11
w: die- ser Frist, lasz|mich doch nicht ver-|za- gen; den|rech- ten Glau- ben,|Herr, ich mein, den|
w: werd zu Spott; die|Hoff- nung gib da-|ne- ben, vor-|aus wenn ich musz|die ha- ben, dasz|
 A2 A2 G2 F2 | E4 D4 | F2 E2 D4 | C4 z2 C2 | F2 F2 G2 G2 | A4 z2 B2 | A2 G2 F2 D2 | F2 E2 D4 |] %19
w: wol- lest du mir|ge- ben,|dir zu le-|ben, dem|Nâch- sten nûtz zu|sein, dein|Wort zu hal- ten|e- * ben.|
w: ich dir môg ver-|trau- en|und nicht bau-|en auf|all mein ei- gen|Tun, sonst|wirds mich e- wig|reu- * en.|
V:2
 z4 z2 D2 | D2 D2 D2 B,2 | D2 D2 !fermata!^C2 D2 | C2 C2 D2 D2 | D2 E2 !fermata!F2 D2 | %5
w: Ver-|leih, dasz ich aus|Her- zens- grund mein|Fein- den môg- ver-|ge- * ben; ver-|
w: Lasz|mich kein Lust noch|Furcht von dir in|die- ser Welt ab-|wen- * den; Be-|
w: Ich|lieg im Streitt und|wi- der- streb; hilf,|O Herr Christ, dem|Schwa- * chen. An|
 D2 D2 D2 B,2 | D2 D2 !fermata!^C2 D2 | C2 C2 D2 D2 | D2 E2 !fermata!F2 F2 | F2 E2 C2 D2 | %10
w: zeih mir auch zu|die- ser Stund, schaff|mir ein neu- es|Le- * ben,; dein|Wort mein Speiss lasz|
w: stân- dig sein aus|End gib mir, du|hasts- al- lein in-|Hän- * den; und|wem dus gibst, der|
w: dei- ner Gnad al-|lein ich kleb, du|kannst mich stâr- ker|ma- * chen. Kommt|nun An- fech- tung|
 F2 E2 !fermata!C2 F2 | F2 E2 D2 D2 | D2 ^C2 D4 | A,=B, C2 C2 B,2 | C4 z2 C2 | C2 C2 D2 E2 | %16
w: all- weg sein, da-|mit mein Seel zu|näh- * ren|mich- * zu weh- *|ren, wenn|Un- glück geht her-|
w: hats um- sonst, es|mag nie- mand er-|wer- * ben|noch _ er- er- *|ben durch|Wer- ke dei- ne|
w: her, so wehr dasz|sie mich nicht um-|stos- * ze;|du _ kannst ma- *|chen, dasz|mirs nicht bringt Ge-|
 F4 z2 F2 | F2 D2 D2 D2 | D2 ^C2 D4 |] %19
w: ein, das|mich bald möcht ver-|keh- * ren.|
w: Gunst,- die|uns er- ret vom|ster- * ben.|
w: fahr; Ich|weisz, du wirsts nicht|las- * sen.|
V:3
 z4 z2 F2 | A2 B2 A2 G2 | A2 D2 !fermata!E2 F2 | G2 F2 A2 B2 | d4 !fermata!d2 F2 | A2 B2 A2 G2 | %6
w: Ich|ruf' zu dir, Herr|Je- su Christ, ich|bitt er- hör mein|Kla- gen, Ver-|leih mir Gnad zu|
w: Ich|bitt noch mehr, O|Her- re Gott, du|kannst es- mir wohl|ge- ben, dasz|ich nicht wie- der|
 A2 D2 !fermata!E2 F2 | G2 F2 A2 B2 | d4 !fermata!d2 c2 | B2 G2 A2 A2 | c2 c2 !fermata!A2 c2 | %11
w: die- ser Frist, lasz|mich doch nicht ver-|sa- gen; den|rech- ten Glau- ben,|Herr, ich mein, den|
w: werd zu Spott, die|Hoff- nung gib da-|ne- ben, vor-|aus wenn ich musz|die ha- ben, dasz|
 d2 c2 B2 A2 | A4 F4 | F2 G2 G4 | E4 z2 E2 | F2 c2 B2 c2 | c4 z2 d2 | c2 B2 A2 B2 | A4 A4 |] %19
w: wol- lest du mir|ge- ben,|dir zu le-|ben, dem|Näch- sten nütz zu|sein, dein|Wort zu hal- ten|e- ben.-|
w: ich dir mög ver-|trau- en|und nicht bau-|en auf|all mein ei- gen|Tun, sonst|wirds mich e- wig|re- en.|
V:4
 z4 z2 D,2 | D,2 G,,2 D,2 G,2 | D,2 B,,2 !fermata!A,,2 D,2 | E,2 F,2 D,2 B,,2 | %4
w: Ver-|leih, dasz ich aus|Her- zens- grung mein|Fein- den môg ver-|
w: Lasz|mich kein Lust noch|Furcht von von in|die- ser Welt ab-|
w: Ich|lieg im Streitt und|wi- der- streb; hilf,|O Herr Christ, dem|
 G,,4 !fermata!D,2 D,2 | D,2 G,,2 D,2 G,2 | D,2 B,,2 !fermata!A,,2 D,2 | E,2 F,2 D,2 B,,2 | %8
w: ge- ben; Ver-|leih mit Gnad zu|die- ser First, lasz|mich doch nicht ver-|
w: wen- den, Be-|stân- dig sein aus|End gig mir, du|hests al- lein in|
w: Schwa- chen. An|dei- ner Gnad al-|lein ich kleb, du|kannst mich stä- ker|
 G,,4 !fermata!D,2 A,,2 | B,,2 C,2 F,2 D,2 | A,,B,, C,2 !fermata!F,2 F,2 | D,2 A,,2 B,,2 D,2 | %12
w: sa- gen; dein|Wort mein Speiss lasz|_ _ weg sein, da-|mit mein Seel zu|
w: Hän- den, und|wem dus gibst der|hats _ um sonst, es|mag nie- mand er-|
w: ma- chen. Kommt|nun An- fech- tung|her, _ so wehr dasz|sie mich nicht um-|
 A,,4 D,4 | D,2 E,F, G,2 G,,2 | C,4 z2 C,2 | A,,2 A,,2 G,,2 C,2 | F,4 z2 B,,2 | F,2 G,2 D,2 B,,2 | %18
w: näh ren|mich zu _ weh- *|re, wenn|Un- glûck geht her-|ein, das|mich bald môcht ver-|
w: wer- ben|noch er- * er- *|ben durch|Wer- ke dei- ne|Gunst, die|uns er- ret vom|
w: sttos- ze;|du kannst _ ma- *|chen, dasz|mirs nicht bringt Ge-|fahr; Ich|weisz, du wirsts nicht|
 F,,G,, A,,2 D,4 |] %19
w: ke- * * re;n.|
w: ster- * * ben.|
w: las- * * sen.|

